app/dist/common/images/suzhou-secote-precision-electronic-co-ltd.svg

<svg height="18" viewBox="0 0 18 18" width="18" xmlns="http://www.w3.org/2000/svg"><path d="m0 0h18v18h-18z" fill="#f0f3fa"/><path d="m6 6.9c0-1.05.75-1.9 1.86-1.9h5.14l-.46 2h-3.63c-.33 0-.6.18-.6.5s.27.5.6.5h2.22c1.03 0 1.87 1 1.87 1.78 0 .04 0 .08-.02.12l-.44 1.57a2.1 2.1 0 0 1 -2.05 1.53h-5.49l.51-2h3.7c.37 0 .79 0 .79-.59 0-.24-.28-.41-.62-.41h-2.12c-.7 0-1.26-.7-1.26-1.35z" fill="#0349a1"/></svg>

<!-- by TradingView --><svg width="18" height="18" viewBox="0 0 18 18" xmlns="http://www.w3.org/2000/svg"><path fill="#F0F3FA" d="M0 0h18v18H0z"/><path d="M6 6.9C6 5.85 6.75 5 7.86 5H13l-.46 2H8.91c-.33 0-.6.18-.6.5s.27.5.6.5h2.22C12.16 8 13 9 13 9.78c0 .04 0 .08-.02.12l-.44 1.57A2.1 2.1 0 0 1 10.49 13H5l.51-2h3.7c.37 0 .79 0 .79-.59 0-.24-.28-.41-.62-.41H7.26C6.56 10 6 9.3 6 8.65V6.9Z" fill="#0349A1"/></svg>
